X:51
T:Irish Wedding,The. RH.051
T:New May Moon,aka. RH.051
T:Young May Moon,aka. RH.051
R:Jig
S:Rev.R.Harrison’s MS,c1815,Cumbria
O:England
A:Temple Sowerby,Cumbria
Z:vmp.Simon Wilson. Review PJH, 2008.
M:6/8
L:1/8
Q:3/8=120
K:D
d|d2B AFA|B2A ABc|d2d efg|f2d def|!
g2g f2f|efd cBA|Bcd AFA|B2A A2:|!
|:f/g/|a2a fdf|aba fdf|a2g fdf|g2e efg|!
afa geg|fed cBA|Bcd AFA|B2A A2:|

